img/note.svg

<svg width="16" height="15" viewBox="0 0 16 15" fill="none" xmlns="http://www.w3.org/2000/svg">
<path fill-rule="evenodd" clip-rule="evenodd" d="M5.00016 0.333984C5.36835 0.333984 5.66683 0.632461 5.66683 1.00065V1.33399L10.3335 1.334V1.00065C10.3335 0.632462 10.632 0.333985 11.0002 0.333984C11.3684 0.333984 11.6668 0.632461 11.6668 1.00065V1.334L12.5002 1.33401C13.9729 1.33401 15.1668 2.52792 15.1668 4.00067V12.0006C15.1668 13.4734 13.9729 14.6673 12.5002 14.6673L3.50016 14.6673C2.0274 14.6673 0.833496 13.4734 0.833496 12.0007L0.833496 5.50078L0.833496 4.00065C0.833496 2.52789 2.02741 1.33398 3.50017 1.33399L4.3335 1.33399V1.00065C4.3335 0.632461 4.63197 0.333984 5.00016 0.333984ZM4.3335 2.66732L3.50017 2.66732C2.76378 2.66732 2.16683 3.26427 2.16683 4.00065V4.83398H13.8335V4.00067C13.8335 3.26429 13.2365 2.66734 12.5002 2.66734L11.6668 2.66734V3.00065C11.6668 3.36884 11.3684 3.66732 11.0002 3.66732C10.632 3.66732 10.3335 3.36884 10.3335 3.00065V2.66734L5.66683 2.66733V3.00065C5.66683 3.36884 5.36835 3.66732 5.00016 3.66732C4.63197 3.66732 4.3335 3.36884 4.3335 3.00065V2.66732ZM13.8335 6.16732H2.16683L2.16683 12.0007C2.16683 12.737 2.76378 13.334 3.50016 13.334L12.5002 13.334C13.2365 13.334 13.8335 12.737 13.8335 12.0006V6.16732Z" fill="#787A80"/>
</svg>

<svg width="16" height="15" fill="none" xmlns="http://www.w3.org/2000/svg"><path fill-rule="evenodd" clip-rule="evenodd" d="M5 .334c.368 0 .667.298.667.667v.333h4.667v-.333a.667.667 0 011.333 0v.333h.833a2.667 2.667 0 012.667 2.667v8a2.667 2.667 0 01-2.667 2.666h-9a2.667 2.667 0 01-2.667-2.666V4A2.667 2.667 0 013.5 1.334h.833v-.333c0-.369.299-.667.667-.667zm-.667 2.333H3.5c-.736 0-1.333.597-1.333 1.334v.833h11.666v-.833c0-.737-.597-1.334-1.333-1.334h-.833v.334a.667.667 0 11-1.333 0v-.334H5.667v.334a.667.667 0 01-1.333 0v-.334zm9.5 3.5H2.168v5.834c0 .736.597 1.333 1.333 1.333h9c.736 0 1.334-.597 1.334-1.333V6.167z" fill="#787A80"/></svg>
